%
(Header)
(Generated by gcodetools from Inkscape.)
(Using default header. To add your own header create file "header" in the output dir.)
M3
(Header end.)
G21 (All units in mm)

(Start cutting path id: path507)
(Change tool to Default tool)

G00 Z5.000000
G00 X43.796090 Y89.519310

G01 Z-0.125000 F100.0(Penetrate)
G02 X42.933971 Y89.882867 Z-0.125000 I0.863873 J3.252506 F400.000000
G02 X42.803903 Y90.112090 Z-0.125000 I0.136948 J0.229223
G02 X42.922473 Y90.388086 Z-0.125000 I0.380504 J0.000000
G02 X48.247564 Y95.278400 Z-0.125000 I151.737030 J-159.882912
G01 X53.691225 Y100.115460 Z-0.125000
G01 X52.922814 Y100.942140 Z-0.125000
G02 X52.159559 Y101.773538 Z-0.125000 I66.692514 J61.992340
G02 X47.184581 Y107.270970 Z-0.125000 I2909.866998 J2638.324486
G03 X42.185993 Y112.654320 Z-0.125000 I-198.304981 J-179.119296
G03 X42.007648 Y112.694920 Z-0.125000 I-0.119831 J-0.114373
G03 X41.820636 Y112.583431 Z-0.125000 I0.218780 J-0.579575
G03 X36.500142 Y107.920370 Z-0.125000 I428.513838 J-494.295744
G02 X31.181099 Y103.273186 Z-0.125000 I-336.481407 J379.760014
G02 X31.048700 Y103.224020 Z-0.125000 I-0.132399 J0.153687
G02 X30.971291 Y103.295870 Z-0.125000 I-0.000000 J0.077625
G02 X30.935199 Y104.745370 Z-0.125000 I14.591224 J1.088511
G02 X31.040071 Y105.309501 Z-0.125000 I1.810041 J-0.044674
G01 X31.133637 Y105.301160 Z-0.125000
G01 X31.294528 Y104.335590 Z-0.125000
G01 X36.453903 Y108.940280 Z-0.125000
G02 X41.676856 Y113.341671 Z-0.125000 I80.055247 J-89.698682
G02 X42.159646 Y113.477720 Z-0.125000 I0.403571 J-0.507482
G02 X42.685950 Y113.214218 Z-0.125000 I-0.107182 J-0.871435
G02 X48.541584 Y106.961569 Z-0.125000 I-253.388516 J-243.167738
G02 X54.245782 Y100.564397 Z-0.125000 I-258.710910 J-236.427776
G02 X54.431741 Y100.049020 Z-0.125000 I-0.572020 J-0.497634
G02 X54.284859 Y99.716201 Z-0.125000 I-0.475692 J0.011114
G02 X49.173462 Y95.021940 Z-0.125000 I-119.668184 J125.172076
G03 X44.240286 Y90.423022 Z-0.125000 I81.127279 J-91.969077
G03 X44.269659 Y90.191650 Z-0.125000 I0.102919 J-0.104485
G03 X46.001689 Y89.695426 Z-0.125000 I1.853091 J3.197203
G03 X50.484046 Y89.987970 Z-0.125000 I0.752457 J22.956491
G03 X60.837784 Y95.950953 Z-0.125000 I-2.758138 J16.759323
G03 X64.714981 Y107.271060 Z-0.125000 I-13.150514 J10.828155
G02 X64.775255 Y109.791810 Z-0.125000 I23.884098 J0.690002
G02 X64.928471 Y110.049180 Z-0.125000 I0.336163 J-0.025833
G03 X65.201757 Y110.255343 Z-0.125000 I-1.278757 J1.979309
G03 X70.393392 Y114.832670 Z-0.125000 I-634.070954 J724.400412
G01 X75.569941 Y119.429870 Z-0.125000
G01 X74.099538 Y120.918090 Z-0.125000
G02 X69.778451 Y126.183574 Z-0.125000 I26.321260 J26.006157
G02 X66.708355 Y131.837840 Z-0.125000 I27.339834 J18.505324
G03 X65.967950 Y133.500352 Z-0.125000 I-43.766507 J-18.495424
G03 X65.825102 Y133.723090 Z-0.125000 I-0.909454 J-0.426084
G03 X65.638823 Y133.739331 Z-0.125000 I-0.101323 J-0.085750
G03 X59.357206 Y128.335540 Z-0.125000 I166.835560 J-200.290319
G01 X53.062198 Y122.743710 Z-0.125000
G01 X51.438779 Y123.104170 Z-0.125000
G03 X49.803760 Y123.349261 Z-0.125000 I-2.572669 J-11.586225
G03 X47.434111 Y123.421540 Z-0.125000 I-1.927939 J-24.326818
G03 X36.595092 Y119.126842 Z-0.125000 I0.300129 J-16.582653
G03 X31.172666 Y108.680380 Z-0.125000 I11.352409 J-12.523209
G01 X30.939363 Y106.795890 Z-0.125000
G01 X30.984653 Y109.441730 Z-0.125000
G02 X31.316459 Y112.017869 Z-0.125000 I11.724832 J-0.200720
G02 X32.209924 Y114.468810 Z-0.125000 I11.492145 J-2.801017
G02 X37.075370 Y120.455220 Z-0.125000 I15.668670 J-7.764292
G02 X44.012936 Y123.741830 Z-0.125000 I10.698270 J-13.617112
G02 X48.772904 Y124.261395 Z-0.125000 I4.728011 J-21.251529
G02 X52.225663 Y123.729830 Z-0.125000 I-0.017012 J-11.589903
G03 X52.726700 Y123.822261 Z-0.125000 I0.163136 J0.519888
G03 X59.227038 Y129.264360 Z-0.125000 I-93.556015 J118.351595
G02 X65.694734 Y134.909371 Z-0.125000 I377.828940 J-426.364871
G02 X65.869225 Y134.974060 Z-0.125000 I0.174491 J-0.202988
G02 X66.013775 Y134.887844 Z-0.125000 I0.000000 J-0.164285
G02 X67.529393 Y131.900140 Z-0.125000 I-57.268993 J-30.929988
G03 X70.654510 Y126.427121 Z-0.125000 I37.929973 J18.029439
G03 X74.223171 Y121.987300 Z-0.125000 I28.432133 J19.199189
G02 X76.316228 Y119.655567 Z-0.125000 I-39.636194 J-37.684314
G02 X76.405983 Y119.410770 Z-0.125000 I-0.288952 J-0.244797
G02 X76.304205 Y119.175919 Z-0.125000 I-0.321846 J0.000000
G02 X70.849294 Y114.203880 Z-0.125000 I-182.971748 J195.263151
G01 X65.292606 Y109.277630 Z-0.125000
G01 X65.459095 Y107.861050 Z-0.125000
G02 X65.410417 Y104.456693 Z-0.125000 I-12.914537 J-1.517863
G02 X64.368519 Y100.423340 Z-0.125000 I-19.260446 J2.824118
G02 X60.928722 Y94.833758 Z-0.125000 I-16.122453 J6.068461
G02 X55.636193 Y90.923540 Z-0.125000 I-12.748904 J11.718939
G02 X53.224472 Y89.874039 Z-0.125000 I-16.323984 J34.216227
G02 X52.013301 Y89.494310 Z-0.125000 I-3.240287 J8.213696
G02 X47.720413 Y89.001016 Z-0.125000 I-4.236608 J17.942980
G02 X43.796089 Y89.519310 Z-0.125000 I0.047236 J15.473529
G01 X43.796090 Y89.519310 Z-0.125000
G00 Z5.000000

(End cutting path id: path507)


(Start cutting path id: path507)
(Change tool to Default tool)

G00 Z5.000000
G00 X82.623692 Y110.605850

G01 Z-0.125000 F100.0(Penetrate)
G02 X80.721662 Y111.962513 Z-0.125000 I2.670652 J5.755877 F400.000000
G02 X79.442078 Y113.912920 Z-0.125000 I4.558583 J4.385649
G02 X78.876627 Y116.517933 Z-0.125000 I6.817424 J2.843682
G02 X79.281209 Y118.889230 Z-0.125000 I6.012324 J0.194363
G03 X79.199124 Y119.529620 Z-0.125000 I-0.630268 J0.244669
G03 X76.702744 Y122.461110 Z-0.125000 I-19.496913 J-14.074394
G02 X69.067419 Y133.715210 Z-0.125000 I25.529660 J25.537692
G02 X65.911425 Y147.517410 Z-0.125000 I35.945809 J15.481246
G02 X70.759726 Y168.354798 Z-0.125000 I39.848308 J1.711096
G02 X84.707686 Y181.913480 Z-0.125000 I28.934551 J-15.811730
G02 X99.658660 Y185.121587 Z-0.125000 I13.494274 J-26.445741
G02 X114.693450 Y180.440490 Z-0.125000 I-1.544759 J-31.446461
G02 X119.915047 Y176.365564 Z-0.125000 I-16.166717 J-26.098911
G02 X124.277340 Y171.133230 Z-0.125000 I-22.625411 J-23.297849
G02 X127.625666 Y165.012333 Z-0.125000 I-32.495152 J-21.752155
G02 X129.950170 Y158.125060 Z-0.125000 I-38.907429 J-16.967440
G02 X130.987282 Y147.646190 Z-0.125000 I-36.361882 J-8.889556
G02 X129.047540 Y136.885040 Z-0.125000 I-40.327238 J1.713753
G02 X124.684431 Y127.866261 Z-0.125000 I-35.040867 J11.387303
G02 X118.141300 Y120.489000 Z-0.125000 I-29.718493 J19.768003
G01 X117.146420 Y119.639610 Z-0.125000
G01 X117.588660 Y118.048940 Z-0.125000
G02 X117.836919 Y116.453316 Z-0.125000 I-6.673758 J-1.855476
G02 X117.703320 Y114.994420 Z-0.125000 I-5.696967 J-0.213864
G02 X116.533015 Y112.442874 Z-0.125000 I-6.574420 J1.471295
G02 X114.505980 Y110.699250 Z-0.125000 I-4.902849 J3.649697
G02 X113.266414 Y110.278710 Z-0.125000 I-1.900014 J3.563289
G02 X111.198690 Y110.150960 Z-0.125000 I-1.654343 J9.979013
G02 X109.161492 Y110.474461 Z-0.125000 I0.362545 J8.859289
G02 X107.849130 Y111.092690 Z-0.125000 I1.186768 J4.221286
G02 X106.201336 Y112.820972 Z-0.125000 I3.378337 J4.870672
G02 X105.138510 Y115.428230 Z-0.125000 I6.987458 J4.368632
G03 X104.853118 Y116.214204 Z-0.125000 I-3.082263 J-0.674388
G03 X104.741490 Y116.188600 Z-0.125000 I-0.052467 J-0.027395
G02 X103.689344 Y112.798663 Z-0.125000 I-6.634367 J0.200882
G02 X101.144520 Y110.596810 Z-0.125000 I-5.017582 J3.227609
G02 X98.470796 Y109.979923 Z-0.125000 I-2.853657 J6.265679
G02 X95.910510 Y110.459960 Z-0.125000 I-0.162161 J6.202795
G02 X93.376060 Y112.459462 Z-0.125000 I2.329303 J5.558495
G02 X92.013133 Y115.786150 Z-0.125000 I6.031912 J4.413780
G01 X91.817833 Y117.114640 Z-0.125000
G01 X91.779013 Y115.924020 Z-0.125000
G02 X90.703055 Y112.696255 Z-0.125000 I-5.962704 J0.194421
G02 X87.990002 Y110.513470 Z-0.125000 I-5.118498 J3.584480
G02 X85.281009 Y109.995379 Z-0.125000 I-2.593039 J6.217036
G02 X82.623691 Y110.605870 Z-0.125000 I0.113315 J6.581800
G01 X82.623692 Y110.605850 Z-0.125000
G00 Z5.000000

(End cutting path id: path507)


(Start cutting path id: path507)
(Change tool to Default tool)

G00 Z5.000000
G00 X87.026772 Y110.939420

G01 Z-0.125000 F100.0(Penetrate)
G03 X89.114006 Y112.081170 Z-0.125000 I-1.641907 J5.480283 F400.000000
G03 X90.561491 Y113.977640 Z-0.125000 I-3.750070 J4.362882
G03 X90.934018 Y114.986203 Z-0.125000 I-5.449639 J2.585984
G03 X91.191096 Y116.301490 Z-0.125000 I-9.045655 J2.450773
G02 X91.573944 Y117.396452 Z-0.125000 I2.699715 J-0.329530
G02 X92.016400 Y117.643810 Z-0.125000 I0.442456 J-0.272038
G02 X92.438807 Y117.380811 Z-0.125000 I-0.000000 J-0.470717
G02 X92.837516 Y115.974020 Z-0.125000 I-3.647559 J-1.793677
G03 X93.817311 Y113.253873 Z-0.125000 I5.807372 J0.555277
G03 X95.968080 Y111.359960 Z-0.125000 I4.742937 J3.217997
G03 X97.431737 Y110.752770 Z-0.125000 I4.715079 J9.298198
G03 X98.184710 Y110.632350 Z-0.125000 I0.752973 J2.293917
G03 X102.258662 Y112.251986 Z-0.125000 I0.000000 J5.933526
G03 X104.044690 Y116.166400 Z-0.125000 I-3.923929 J4.155032
G02 X104.556406 Y117.508535 Z-0.125000 I2.266234 J-0.095428
G02 X105.307340 Y117.707480 Z-0.125000 I0.513226 J-0.420511
G02 X105.557747 Y117.443712 Z-0.125000 I-0.151358 J-0.394436
G02 X105.824920 Y116.116110 Z-0.125000 I-5.570442 J-1.811707
G03 X107.537208 Y112.387557 Z-0.125000 I5.998940 J0.497483
G03 X111.170780 Y110.693570 Z-0.125000 I4.092722 J4.034850
G03 X115.028980 Y111.925224 Z-0.125000 I0.426578 J5.322529
G03 X117.078130 Y115.648930 Z-0.125000 I-3.779412 J4.505481
G03 X117.085250 Y116.738739 Z-0.125000 I-4.271393 J0.572832
G03 X116.758680 Y118.292930 Z-0.125000 I-9.087193 J-1.098013
G01 X116.291530 Y119.835810 Z-0.125000
G01 X119.091060 Y122.532240 Z-0.125000
G03 X127.270367 Y134.497187 Z-0.125000 I-24.753094 J25.699542
G03 X130.183430 Y149.129220 Z-0.125000 I-34.895315 J14.553236
G03 X127.384986 Y163.631796 Z-0.125000 I-39.404348 J-0.082252
G03 X119.797650 Y175.195940 Z-0.125000 I-32.098403 J-12.788912
G03 X109.632854 Y182.121673 Z-0.125000 I-23.036339 J-22.887868
G03 X98.360450 Y184.451100 Z-0.125000 I-11.272404 J-26.109609
G03 X87.079308 Y182.120959 Z-0.125000 I-0.000000 J-28.473326
G03 X76.924922 Y175.201380 Z-0.125000 I12.836826 J-29.748362
G03 X70.710849 Y166.534788 Z-0.125000 I23.778795 J-23.610828
G03 X67.098168 Y155.479220 Z-0.125000 I35.676924 J-17.776372
G03 X66.524523 Y147.863972 Z-0.125000 I40.000112 J-6.842378
G03 X67.372840 Y141.059430 Z-0.125000 I32.712812 J0.623131
G03 X71.505423 Y130.489173 Z-0.125000 I38.597003 J8.997041
G03 X78.186704 Y122.012680 Z-0.125000 I31.168485 J17.696019
G01 X80.454514 Y119.890900 Z-0.125000
G01 X80.017750 Y118.538530 Z-0.125000
G03 X79.709478 Y116.240498 Z-0.125000 I6.194777 J-2.000697
G03 X80.217426 Y114.171380 Z-0.125000 I5.490916 J0.251058
G03 X83.131046 Y111.236173 Z-0.125000 I5.528607 J2.574248
G03 X87.026772 Y110.939420 Z-0.125000 I2.333700 J4.916817
G01 X87.026772 Y110.939420 Z-0.125000
G00 Z5.000000

(End cutting path id: path507)


(Start cutting path id: path507)
(Change tool to Default tool)

G00 Z5.000000
G00 X95.164770 Y128.938360

G01 Z-0.125000 F100.0(Penetrate)
G02 X94.546813 Y132.973071 Z-0.125000 I5.404558 J2.892441 F400.000000
G02 X97.117120 Y139.232000 Z-0.125000 I16.548865 J-3.138767
G02 X98.332657 Y140.158470 Z-0.125000 I1.970619 J-1.324837
G02 X99.326340 Y139.972960 Z-0.125000 I0.330303 J-0.984814
G02 X102.064178 Y135.392972 Z-0.125000 I-5.119531 J-6.168678
G02 X101.540970 Y129.019770 Z-0.125000 I-11.284682 J-2.281662
G02 X101.159243 Y128.521292 Z-0.125000 I-1.025461 J0.389884
G02 X100.695640 Y128.407230 Z-0.125000 I-0.372210 J0.513655
G02 X100.276448 Y128.677753 Z-0.125000 I0.086463 J0.594023
G02 X99.661950 Y130.022940 Z-0.125000 I4.443522 J2.842804
G03 X98.781046 Y132.062595 Z-0.125000 I-8.910605 J-2.638338
G03 X98.318950 Y132.328180 Z-0.125000 I-0.462096 J-0.269211
G03 X98.138540 Y132.224287 Z-0.125000 I0.000000 J-0.208587
G03 X97.167400 Y130.343810 Z-0.125000 I18.645028 J-10.819906
G02 X95.861896 Y128.772386 Z-0.125000 I-3.540744 J1.613566
G02 X95.164770 Y128.938360 Z-0.125000 I-0.275021 J0.391877
G01 X95.164770 Y128.938360 Z-0.125000
G00 Z5.000000

(End cutting path id: path507)


(Start cutting path id: path507)
(Change tool to Default tool)

G00 Z5.000000
G00 X96.521760 Y130.760600

G01 Z-0.125000 F100.0(Penetrate)
G02 X98.346320 Y132.284749 Z-0.125000 I2.252594 J-0.842417 F400.000000
G02 X99.939900 Y131.378830 Z-0.125000 I0.254470 J-1.406943
G02 X100.444599 Y129.920123 Z-0.125000 I-29.006185 J-10.852526
G02 X100.483070 Y129.672430 Z-0.125000 I-0.778134 J-0.247693
G03 X100.737610 Y129.506256 Z-0.125000 I0.181513 J0.000000
G03 X101.150490 Y129.965730 Z-0.125000 I-0.301576 J0.686235
G03 X101.352775 Y133.662778 Z-0.125000 I-7.058404 J2.240260
G03 X99.410470 Y138.638030 Z-0.125000 I-15.107857 J-3.031248
G03 X98.834220 Y139.348998 Z-0.125000 I-2.910400 J-1.769909
G03 X98.524160 Y139.471930 Z-0.125000 I-0.310060 J-0.329551
G03 X97.398235 Y138.705152 Z-0.125000 I0.000000 J-1.210034
G03 X95.725720 Y132.363520 Z-0.125000 I26.098353 J-10.274436
G03 X95.577112 Y129.418934 Z-0.125000 I16.192303 J-2.293238
G03 X95.853670 Y129.153180 Z-0.125000 I0.276558 J0.011024
G01 X95.899409 Y129.183701 Z-0.125000
G03 X96.521760 Y130.760600 Z-0.125000 I-43.406825 J18.042519
G01 X96.521760 Y130.760600 Z-0.125000
G00 Z5.000000

(End cutting path id: path507)


(Start cutting path id: path507)
(Change tool to Default tool)

G00 Z5.000000
G00 X80.894593 Y140.248290

G01 Z-0.125000 F100.0(Penetrate)
G03 X81.090582 Y140.779647 Z-0.125000 I-1.814453 J0.971078 F400.000000
G03 X81.169474 Y141.505060 Z-0.125000 I-3.337428 J0.729957
G02 X81.630308 Y143.077392 Z-0.125000 I2.925667 J-0.003783
G02 X83.084295 Y144.499660 Z-0.125000 I3.798609 J-2.428985
G02 X83.973404 Y144.971068 Z-0.125000 I4.412178 J-7.247521
G02 X86.294447 Y145.964820 Z-0.125000 I22.170991 J-48.575916
G03 X90.752120 Y148.387212 Z-0.125000 I-8.086096 J20.192681
G03 X92.283235 Y150.192210 Z-0.125000 I-2.730293 J3.867904
G03 X92.580132 Y152.019320 Z-0.125000 I-2.915678 J1.411462
G03 X91.774651 Y154.123120 Z-0.125000 I-4.758000 J-0.615597
G03 X86.286998 Y157.742385 Z-0.125000 I-7.208162 J-4.959345
G03 X79.936978 Y156.497260 Z-0.125000 I-1.667145 J-8.312532
G03 X77.576089 Y154.388082 Z-0.125000 I6.094466 J-9.197693
G03 X76.005874 Y151.808120 Z-0.125000 I7.695282 J-6.451311
G03 X75.272116 Y147.082171 Z-0.125000 I9.216527 J-3.850909
G03 X76.808032 Y142.686570 Z-0.125000 I9.431470 J0.829415
G03 X79.010483 Y140.202116 Z-0.125000 I9.871931 J6.532943
G03 X80.276555 Y139.736520 Z-0.125000 I1.266072 J1.488585
G03 X80.559608 Y139.838498 Z-0.125000 I0.000000 J0.443815
G03 X80.894593 Y140.248290 Z-0.125000 I-0.875933 J1.057845
G01 X80.894593 Y140.248290 Z-0.125000
G00 Z5.000000

(End cutting path id: path507)


(Start cutting path id: path507)
(Change tool to Default tool)

G00 Z5.000000
G00 X79.448693 Y139.321590

G01 Z-0.125000 F100.0(Penetrate)
G02 X77.367764 Y140.755989 Z-0.125000 I2.807854 J6.300081 F400.000000
G02 X75.722179 Y143.065800 Z-0.125000 I6.155695 J6.126608
G02 X75.222354 Y144.584142 Z-0.125000 I5.256888 J2.571963
G02 X74.875984 Y147.689190 Z-0.125000 I21.991716 J4.025029
G02 X75.039318 Y150.787043 Z-0.125000 I16.539672 J0.681181
G02 X75.597608 Y152.579200 Z-0.125000 I5.996044 J-0.884842
G02 X77.919169 Y155.911200 Z-0.125000 I12.104582 J-5.959061
G02 X80.558397 Y157.802670 Z-0.125000 I6.254301 J-5.939790
G02 X81.873257 Y158.191549 Z-0.125000 I1.989777 J-4.310431
G02 X84.608067 Y158.384290 Z-0.125000 I2.698293 J-18.787675
G02 X87.336598 Y158.159262 Z-0.125000 I-0.035032 J-17.079387
G02 X88.841400 Y157.689820 Z-0.125000 I-0.914729 J-5.578732
G02 X92.301790 Y154.903165 Z-0.125000 I-4.071433 J-8.597627
G02 X93.339317 Y151.859890 Z-0.125000 I-3.944505 J-3.043275
G02 X92.121122 Y148.969515 Z-0.125000 I-4.038052 J-0.000000
G02 X86.592442 Y145.277630 Z-0.125000 I-12.667552 J12.984340
G03 X83.464069 Y143.844381 Z-0.125000 I26.949233 J-62.953283
G03 X82.917904 Y143.481130 Z-0.125000 I1.092995 J-2.235586
G03 X82.037112 Y142.265639 Z-0.125000 I2.219383 J-2.535124
G03 X81.693600 Y140.604910 Z-0.125000 I3.957098 J-1.684394
G02 X80.989343 Y139.398727 Z-0.125000 I-1.398139 J0.007645
G02 X79.448693 Y139.321590 Z-0.125000 I-0.846386 J1.480609
G01 X79.448693 Y139.321590 Z-0.125000
G00 Z5.000000

(End cutting path id: path507)


(Start cutting path id: path507)
(Change tool to Default tool)

G00 Z5.000000
G00 X115.762930 Y139.125110

G01 Z-0.125000 F100.0(Penetrate)
G02 X115.430533 Y139.424277 Z-0.125000 I0.123109 J0.471027 F400.000000
G02 X114.903920 Y141.401860 Z-0.125000 I9.539400 J3.599164
G03 X113.995011 Y143.011714 Z-0.125000 I-2.630775 J-0.423805
G03 X110.469340 Y145.156550 Z-0.125000 I-8.580105 J-10.133774
G02 X104.394536 Y150.231498 Z-0.125000 I5.009638 J12.169927
G02 X104.453300 Y154.555370 Z-0.125000 I3.307966 J2.117378
G02 X107.910547 Y157.500328 Z-0.125000 I7.076250 J-4.805392
G02 X112.810960 Y158.457950 Z-0.125000 I4.374494 J-9.368288
G02 X116.373736 Y157.575121 Z-0.125000 I-0.489144 J-9.604455
G02 X119.201190 Y155.489160 Z-0.125000 I-3.712978 J-7.992065
G02 X121.630978 Y151.027945 Z-0.125000 I-8.070844 J-7.288058
G02 X121.815260 Y145.778910 Z-0.125000 I-11.224952 J-3.021836
G02 X120.741217 Y142.632882 Z-0.125000 I-12.014332 J2.345301
G02 X119.258420 Y140.684950 Z-0.125000 I-5.933095 J2.978036
G02 X116.971176 Y139.018606 Z-0.125000 I-9.042049 J10.008304
G02 X116.300420 Y138.973460 Z-0.125000 I-0.381247 J0.658928
G03 X116.224232 Y138.999770 Z-0.125000 I-0.266212 J-0.647415
G03 X115.762930 Y139.125110 Z-0.125000 I-6.755418 J-23.951194
G01 X115.762930 Y139.125110 Z-0.125000
G00 Z5.000000

(End cutting path id: path507)


(Start cutting path id: path507)
(Change tool to Default tool)

G00 Z5.000000
G00 X118.253460 Y140.866390

G01 Z-0.125000 F100.0(Penetrate)
G03 X120.077287 Y143.022736 Z-0.125000 I-4.855119 J5.955902 F400.000000
G03 X121.147860 Y145.954220 Z-0.125000 I-8.155776 J4.639702
G03 X120.876768 Y150.955768 Z-0.125000 I-10.479186 J1.940132
G03 X118.381180 Y155.179520 Z-0.125000 I-9.792665 J-2.936829
G03 X115.508449 Y157.156775 Z-0.125000 I-6.521506 J-6.399517
G03 X112.261010 Y157.845360 Z-0.125000 I-3.306134 J-7.590144
G03 X110.183005 Y157.626287 Z-0.125000 I-0.065981 J-9.339071
G03 X108.342650 Y156.980910 Z-0.125000 I1.752766 J-7.944846
G03 X106.693593 Y155.934810 Z-0.125000 I4.006531 J-8.138667
G03 X105.522280 Y154.731950 Z-0.125000 I4.180137 J-5.242231
G03 X104.265332 Y152.378521 Z-0.125000 I6.851823 J-5.171882
G03 X104.219950 Y150.985100 Z-0.125000 I2.214042 J-0.769559
G03 X105.550142 Y149.072735 Z-0.125000 I3.382460 J0.933947
G03 X112.318710 Y145.145670 Z-0.125000 I23.158720 J32.119071
G02 X114.607173 Y143.501809 Z-0.125000 I-2.991906 J-6.579958
G02 X115.566370 Y141.671490 Z-0.125000 I-2.839983 J-2.654819
G03 X116.613445 Y140.540067 Z-0.125000 I1.482463 J0.321726
G03 X118.253460 Y140.866390 Z-0.125000 I0.512272 J1.709759
G01 X118.253460 Y140.866390 Z-0.125000
G00 Z5.000000

(End cutting path id: path507)


(Start cutting path id: path507)
(Change tool to Default tool)

G00 Z5.000000
G00 X128.590630 Y168.133030

G01 Z-0.125000 F100.0(Penetrate)
G03 X124.519054 Y174.488676 Z-0.125000 I-36.267348 J-18.751717 F400.000000
G03 X119.991870 Y179.159430 Z-0.125000 I-23.910912 J-18.646547
G02 X118.374247 Y180.680008 Z-0.125000 I11.650410 J14.014671
G02 X118.225750 Y181.034960 Z-0.125000 I0.398497 J0.375253
G02 X118.368751 Y181.387290 Z-0.125000 I0.461293 J0.017959
G02 X124.858010 Y187.348990 Z-0.125000 I171.506063 J-180.170276
G01 X131.505880 Y193.242690 Z-0.125000
G01 X131.358740 Y194.485000 Z-0.125000
G02 X131.372780 Y197.275716 Z-0.125000 I11.302136 J1.338535
G02 X132.212300 Y201.119847 Z-0.125000 I22.438921 J-2.886704
G02 X136.148405 Y207.698511 Z-0.125000 I15.580561 J-4.855219
G02 X142.948690 Y212.053974 Z-0.125000 I12.920893 J-12.687237
G02 X145.101364 Y212.634178 Z-0.125000 I4.627249 J-12.884498
G02 X147.843480 Y212.953549 Z-0.125000 I3.794100 J-20.644524
G02 X153.159164 Y212.714511 Z-0.125000 I1.404551 J-27.989959
G02 X153.664310 Y212.133179 Z-0.125000 I-0.081931 J-0.581332
G02 X153.546917 Y211.859751 Z-0.125000 I-0.377125 J-0.000000
G02 X148.504940 Y207.232246 Z-0.125000 I-137.375755 J144.619547
G03 X143.410518 Y202.628328 Z-0.125000 I240.775349 J-271.548289
G03 X143.345560 Y202.480187 Z-0.125000 I0.136446 J-0.148141
G03 X143.414198 Y202.298435 Z-0.125000 I0.274956 J-0.000000
G03 X148.919800 Y196.101989 Z-0.125000 I731.655356 J644.538705
G03 X154.466469 Y189.964930 Z-0.125000 I728.337282 J652.695492
G03 X154.708330 Y189.800570 Z-0.125000 I0.464503 J0.423401
G03 X154.885633 Y189.830861 Z-0.125000 I0.062895 J0.165905
G03 X160.118500 Y194.364630 Z-0.125000 I-169.613283 J201.054071
G02 X165.362871 Y198.922135 Z-0.125000 I197.988871 J-222.531824
G02 X165.583600 Y199.003180 Z-0.125000 I0.220729 J-0.260060
G02 X165.718754 Y198.889651 Z-0.125000 I0.000000 J-0.137214
G02 X165.803840 Y197.746409 Z-0.125000 I-5.701124 J-0.999094
G02 X165.700408 Y197.251711 Z-0.125000 I-1.401810 J0.034931
G01 X165.605410 Y197.259980 Z-0.125000
G03 X165.233352 Y197.403922 Z-0.125000 I-0.233471 J-0.050657
G03 X160.311230 Y193.489670 Z-0.125000 I34.439379 J-48.358959
G02 X155.132313 Y189.085809 Z-0.125000 I-111.988082 J126.450264
G02 X154.748380 Y188.949010 Z-0.125000 I-0.383933 J0.470364
G02 X154.381451 Y189.103647 Z-0.125000 I0.000000 J0.512651
G02 X149.159790 Y194.676770 Z-0.125000 I134.974580 J131.695313
G02 X142.588185 Y202.422883 Z-0.125000 I129.991654 J116.942263
G02 X142.591360 Y202.891403 Z-0.125000 I0.290522 J0.232302
G02 X142.977341 Y203.298571 Z-0.125000 I3.070409 J-2.524104
G02 X147.772130 Y207.635903 Z-0.125000 I356.542343 J-389.327883
G01 X152.595570 Y211.945737 Z-0.125000
G01 X151.608590 Y212.134398 Z-0.125000
G03 X148.452266 Y212.396612 Z-0.125000 I-2.810552 J-14.703452
G03 X145.197650 Y211.986278 Z-0.125000 I0.370927 J-16.054440
G03 X143.775358 Y211.554444 Z-0.125000 I2.504598 J-10.807312
G03 X141.493480 Y210.584335 Z-0.125000 I10.927737 J-28.872847
G03 X139.386885 Y209.319099 Z-0.125000 I5.334821 J-11.268718
G03 X136.994970 Y207.237972 Z-0.125000 I12.387660 J-16.652709
G03 X133.454487 Y201.931909 Z-0.125000 I12.031834 J-11.862497
G03 X132.091990 Y195.592830 Z-0.125000 I16.089475 J-6.774175
G02 X131.754871 Y192.706943 Z-0.125000 I-15.917304 J0.396770
G02 X131.339420 Y192.020950 Z-0.125000 I-1.187058 J0.250106
G03 X130.671156 Y191.451818 Z-0.125000 I17.327106 J-21.022043
G03 X124.840780 Y186.303180 Z-0.125000 I1414.505193 J-1607.677333
G01 X119.019590 Y181.143810 Z-0.125000
G01 X120.998080 Y179.334670 Z-0.125000
G02 X126.431059 Y173.369716 Z-0.125000 I-29.851960 J-32.646362
G02 X129.309550 Y168.343130 Z-0.125000 I-18.186262 J-13.751903
G03 X129.696678 Y167.586432 Z-0.125000 I4.902698 J2.030848
G03 X129.817770 Y167.519880 Z-0.125000 I0.119315 J0.073655
G03 X129.963511 Y167.575134 Z-0.125000 I-0.002474 J0.226360
G03 X136.690700 Y173.473000 Z-0.125000 I-490.478729 J566.232436
G02 X143.434565 Y179.321119 Z-0.125000 I260.003076 J-293.014838
G02 X143.702160 Y179.414590 Z-0.125000 I0.255396 J-0.301385
G02 X144.003480 Y179.379080 Z-0.125000 I-0.051746 J-1.735250
G02 X145.594520 Y179.021850 Z-0.125000 I-10.326568 J-49.714512
G03 X153.141930 Y179.213306 Z-0.125000 I3.417138 J14.152002
G03 X160.371580 Y183.393690 Z-0.125000 I-5.053669 J17.081679
G03 X163.901168 Y188.076962 Z-0.125000 I-12.377017 J12.999734
G03 X165.558570 Y193.314640 Z-0.125000 I-13.959190 J7.298294
G01 X165.768050 Y194.902140 Z-0.125000
G01 X165.801550 Y192.861540 Z-0.125000
G02 X162.656306 Y184.325484 Z-0.125000 I-12.593921 J-0.207058
G02 X153.135100 Y178.492330 Z-0.125000 I-14.235084 J12.548210
G02 X151.397869 Y178.217472 Z-0.125000 I-2.324497 J9.064417
G02 X148.240310 Y178.184550 Z-0.125000 I-1.892795 J30.101065
G02 X145.074397 Y178.378151 Z-0.125000 I3.477980 J82.857068
G02 X144.397590 Y178.493430 Z-0.125000 I0.311129 J3.871070
G03 X143.801264 Y178.369905 Z-0.125000 I-0.173960 J-0.661363
G03 X136.856970 Y172.571740 Z-0.125000 I93.207018 J-118.688919
G02 X129.951580 Y166.556891 Z-0.125000 I-334.299819 J376.823978
G02 X129.719470 Y166.467910 Z-0.125000 I-0.241265 J0.282124
G02 X129.519603 Y166.570409 Z-0.125000 I-0.006421 J0.233593
G02 X128.590580 Y168.133030 Z-0.125000 I12.718433 J8.618952
G01 X128.590630 Y168.133030 Z-0.125000
G00 Z5.000000

(End cutting path id: path507)


(Start cutting path id: path507)
(Change tool to Default tool)

G00 Z5.000000
G00 X59.906420 Y172.579060

G01 Z-0.125000 F100.0(Penetrate)
G03 X53.005969 Y178.401502 Z-0.125000 I-111.069923 J-124.633974 F400.000000
G03 X52.498089 Y178.494610 Z-0.125000 I-0.340695 J-0.426668
G02 X51.920094 Y178.379654 Z-0.125000 I-0.787165 J2.447285
G02 X48.608463 Y178.177090 Z-0.125000 I-6.628833 J81.200522
G02 X45.307822 Y178.243279 Z-0.125000 I-1.106520 J27.150675
G02 X43.184505 Y178.616470 Z-0.125000 I0.935765 J11.551191
G02 X39.276645 Y180.288617 Z-0.125000 I4.102348 J14.989791
G02 X35.502141 Y183.237210 Z-0.125000 I10.170900 J16.909975
G02 X33.547460 Y185.511788 Z-0.125000 I13.944415 J13.960444
G02 X32.194849 Y187.736910 Z-0.125000 I11.986109 J8.809813
G02 X31.315486 Y190.165855 Z-0.125000 I10.436700 J5.152104
G02 X30.985103 Y192.763990 Z-0.125000 I11.632246 J2.799247
G02 X30.960931 Y194.650504 Z-0.125000 I236.049818 J3.967978
G02 X30.976844 Y194.819230 Z-0.125000 I0.825285 J0.007277
G01 X31.003729 Y194.818525 Z-0.125000
G02 X31.161432 Y193.647910 Z-0.125000 I-55.540856 J-8.078297
G03 X34.175712 Y185.849982 Z-0.125000 I17.070475 J2.117026
G03 X40.422653 Y180.518500 Z-0.125000 I13.564551 J9.568158
G03 X46.464906 Y178.744621 Z-0.125000 I8.158248 J16.611312
G03 X52.083491 Y179.176430 Z-0.125000 I1.694423 J14.722284
G01 X53.293288 Y179.508640 Z-0.125000
G01 X59.976392 Y173.579350 Z-0.125000
G03 X66.677980 Y167.682303 Z-0.125000 I726.723884 J819.115208
G03 X66.836387 Y167.592350 Z-0.125000 I0.299835 J0.343555
G03 X66.971540 Y167.640208 Z-0.125000 I0.036444 J0.111849
G03 X68.203901 Y169.701880 Z-0.125000 I-27.691250 J17.951556
G02 X71.191941 Y174.260200 Z-0.125000 I30.699689 J-16.865546
G02 X75.114736 Y178.641020 Z-0.125000 I32.258283 J-24.938867
G01 X77.726716 Y181.165320 Z-0.125000
G01 X71.245517 Y186.909260 Z-0.125000
G01 X64.764318 Y192.653210 Z-0.125000
G01 X64.760418 Y195.100590 Z-0.125000
G03 X63.715239 Y201.222237 Z-0.125000 I-18.623290 J-0.029599
G03 X60.876009 Y206.201024 Z-0.125000 I-14.972942 J-5.239599
G03 X54.975497 Y210.748586 Z-0.125000 I-13.399784 J-11.284598
G03 X47.951468 Y212.323036 Z-0.125000 I-7.001930 J-14.782190
G03 X45.183115 Y212.178550 Z-0.125000 I0.036852 J-27.299163
G03 X44.888244 Y211.746012 Z-0.125000 I0.035204 J-0.340779
G03 X45.331797 Y211.012980 Z-0.125000 I1.530751 J0.425537
G03 X49.332925 Y207.353636 Z-0.125000 I144.747672 J154.250035
G02 X54.234630 Y202.867535 Z-0.125000 I-167.959807 J-188.441010
G02 X54.387818 Y202.603577 Z-0.125000 I-0.364657 J-0.388059
G02 X54.291500 Y202.208804 Z-0.125000 I-0.432429 J-0.103631
G02 X48.443411 Y195.605270 Z-0.125000 I-303.837270 J263.186933
G02 X42.454342 Y189.133712 Z-0.125000 I-299.233111 J270.916683
G02 X42.025382 Y188.949010 Z-0.125000 I-0.428960 J0.405766
G02 X41.635294 Y189.088165 Z-0.125000 I0.000000 J0.616335
G02 X36.523223 Y193.446930 Z-0.125000 I102.642985 J125.559497
G03 X31.447219 Y197.900544 Z-0.125000 I-341.995605 J-384.669817
G03 X31.328369 Y197.944847 Z-0.125000 I-0.118850 J-0.137265
G03 X31.250450 Y197.881637 Z-0.125000 I0.000000 J-0.079631
G03 X31.091393 Y196.820370 Z-0.125000 I8.912900 J-1.878367
G01 X31.024727 Y196.814286 Z-0.125000
G02 X30.943888 Y197.349534 Z-0.125000 I2.143208 J0.597418
G02 X31.024590 Y198.879748 Z-0.125000 I9.508340 J0.265778
G02 X31.165681 Y199.003180 Z-0.125000 I0.141091 J-0.018923
G02 X31.401067 Y198.917181 Z-0.125000 I0.000000 J-0.365135
G02 X36.655785 Y194.373560 Z-0.125000 I-180.870054 J-214.487384
G03 X41.896098 Y189.838887 Z-0.125000 I191.630371 J216.154780
G03 X42.059727 Y189.809500 Z-0.125000 I0.107262 J0.127001
G03 X42.327551 Y189.988198 Z-0.125000 I-0.227427 J0.630906
G03 X47.842600 Y196.087318 Z-0.125000 I-626.139920 J571.721767
G03 X53.309241 Y202.252362 Z-0.125000 I-629.590440 J563.773941
G03 X53.387246 Y202.459426 Z-0.125000 I-0.235823 J0.207064
G03 X53.303734 Y202.651928 Z-0.125000 I-0.263624 J0.000000
G03 X48.294017 Y207.224830 Z-0.125000 I-188.199531 J-201.146266
G02 X43.245283 Y211.790837 Z-0.125000 I293.959266 J330.111452
G02 X43.118564 Y211.978396 Z-0.125000 I0.330613 J0.359955
G02 X43.392649 Y212.466020 Z-0.125000 I0.341669 J0.128795
G02 X47.963287 Y212.890885 Z-0.125000 I4.551258 J-24.164231
G02 X51.627233 Y212.660284 Z-0.125000 I-0.022978 J-29.588001
G02 X53.608068 Y212.182010 Z-0.125000 I-1.136130 J-9.046520
G02 X57.180848 Y210.414135 Z-0.125000 I-6.173511 J-16.970462
G02 X60.437417 Y207.803753 Z-0.125000 I-10.684218 J-16.665596
G02 X62.177632 Y205.753269 Z-0.125000 I-11.055892 J-11.146659
G02 X63.540744 Y203.438128 Z-0.125000 I-12.769841 J-9.077503
G02 X64.956473 Y199.442318 Z-0.125000 I-18.108660 J-8.664663
G02 X65.417267 Y195.590810 Z-0.125000 I-16.347213 J-3.909098
G01 X65.425767 Y193.104470 Z-0.125000
G01 X71.987758 Y187.285580 Z-0.125000
G02 X78.348089 Y181.396625 Z-0.125000 I-133.843393 J-150.935960
G02 X78.470050 Y181.019730 Z-0.125000 I-0.292819 J-0.302934
G02 X78.281416 Y180.633723 Z-0.125000 I-0.770411 J0.137391
G02 X76.777574 Y179.138490 Z-0.125000 I-14.173615 J12.751352
G03 X71.877622 Y173.927592 Z-0.125000 I26.661544 J-29.979819
G03 X68.436484 Y168.509950 Z-0.125000 I25.410562 J-19.941773
G02 X67.322673 Y166.596915 Z-0.125000 I-16.251193 J8.181046
G02 X67.076460 Y166.470430 Z-0.125000 I-0.236671 J0.157820
G02 X66.788874 Y166.581794 Z-0.125000 I0.015548 J0.467164
G02 X59.906410 Y172.579060 Z-0.125000 I265.817583 J312.000124
G01 X59.906420 Y172.579060 Z-0.125000
G00 Z5.000000

(End cutting path id: path507)


(Start cutting path id: path507)
(Change tool to Default tool)

G00 Z5.000000
G00 X144.403900 Y89.600110

G01 Z-0.125000 F100.0(Penetrate)
G02 X137.821072 Y92.917733 Z-0.125000 I4.772806 J17.659841 F400.000000
G02 X133.379030 Y98.329200 Z-0.125000 I10.242906 J12.936838
G02 X131.886224 Y102.369719 Z-0.125000 I16.056217 J8.228140
G02 X131.358680 Y106.795860 Z-0.125000 I18.792560 J4.484360
G01 X131.350680 Y109.441700 Z-0.125000
G01 X125.838740 Y114.308390 Z-0.125000
G02 X120.410096 Y119.212649 Z-0.125000 I212.575277 J240.761452
G02 X120.326790 Y119.403090 Z-0.125000 I0.176026 J0.190441
G02 X120.400189 Y119.601193 Z-0.125000 I0.304037 J0.000000
G02 X121.941740 Y121.283280 Z-0.125000 I26.904521 J-23.109261
G03 X126.433901 Y126.799257 Z-0.125000 I-28.127076 J27.493612
G03 X129.681540 Y132.770700 Z-0.125000 I-29.783005 J20.066686
G02 X130.624580 Y134.731757 Z-0.125000 I22.295741 J-9.514379
G02 X130.827070 Y134.902210 Z-0.125000 I0.315898 J-0.169771
G02 X131.073789 Y134.855344 Z-0.125000 I0.081395 J-0.244347
G02 X137.547710 Y129.275890 Z-0.125000 I-191.396714 J-228.625995
G03 X144.064800 Y123.853771 Z-0.125000 I88.713046 J100.000570
G03 X144.661580 Y123.729360 Z-0.125000 I0.424992 J0.545085
G02 X148.437739 Y124.208254 Z-0.125000 I3.793462 J-14.784802
G02 X152.734700 Y123.738360 Z-0.125000 I0.022306 J-19.677796
G02 X159.700314 Y120.443830 Z-0.125000 I-3.785248 J-17.014091
G02 X164.537920 Y114.489180 Z-0.125000 I-10.657933 J-13.600972
G02 X165.442983 Y112.064934 Z-0.125000 I-11.497631 J-5.673573
G02 X165.750970 Y109.858970 Z-0.125000 I-9.189186 J-2.407435
G02 X165.678788 Y108.941236 Z-0.125000 I-4.622267 J-0.098151
G01 X165.585850 Y108.942250 Z-0.125000
G03 X163.924843 Y114.032092 Z-0.125000 I-16.692756 J-2.631530
G03 X160.697360 Y118.459020 Z-0.125000 I-15.739063 J-8.084699
G03 X153.409365 Y122.689831 Z-0.125000 I-11.614351 J-11.614325
G03 X144.392350 Y122.910950 Z-0.125000 I-4.956362 J-18.152511
G02 X143.793110 Y123.046430 Z-0.125000 I-0.155673 J0.704433
G02 X137.412270 Y128.352760 Z-0.125000 I80.937221 J103.816294
G01 X131.105180 Y133.943300 Z-0.125000
G01 X129.577360 Y130.820560 Z-0.125000
G02 X126.957233 Y126.298033 Z-0.125000 I-33.523596 J16.401654
G02 X123.361770 Y121.640580 Z-0.125000 I-39.163293 J26.516759
G01 X121.299360 Y119.287510 Z-0.125000
G01 X122.122790 Y118.597870 Z-0.125000
G02 X122.938072 Y117.898764 Z-0.125000 I-29.633329 J-35.382648
G02 X127.572530 Y113.813560 Z-0.125000 I-1007.888655 J-1148.070373
G01 X132.198840 Y109.718880 Z-0.125000
G01 X132.047410 Y107.573180 Z-0.125000
G03 X134.863775 Y97.254221 Z-0.125000 I16.139092 J-1.138956
G03 X143.742410 Y90.600500 Z-0.125000 I14.334542 J9.877193
G03 X145.891670 Y90.101112 Z-0.125000 I3.826708 J11.594663
G03 X148.901780 Y89.884890 Z-0.125000 I3.137937 J22.623874
G03 X151.913270 Y89.983740 Z-0.125000 I0.212201 J39.457383
G03 X152.396510 Y90.134080 Z-0.125000 I-0.078538 J1.104260
G03 X152.437616 Y90.440434 Z-0.125000 I-0.099714 J0.169314
G03 X147.552250 Y95.111960 Z-0.125000 I-67.340660 J-65.532933
G02 X142.426996 Y99.878287 Z-0.125000 I105.376183 J118.450258
G02 X142.337740 Y100.180500 Z-0.125000 I0.223990 J0.230441
G02 X142.639791 Y100.767130 Z-0.125000 I1.298365 J-0.297441
G02 X148.391796 Y107.119031 Z-0.125000 I317.341450 J-281.590270
G02 X154.293629 Y113.375820 Z-0.125000 I308.536441 J-285.120867
G02 X154.685770 Y113.542620 Z-0.125000 I0.392141 J-0.377554
G02 X155.100484 Y113.394802 Z-0.125000 I0.000000 J-0.655664
G02 X160.346270 Y108.920180 Z-0.125000 I-101.710577 J-124.551792
G03 X165.372821 Y104.779704 Z-0.125000 I56.077170 J62.956500
G03 X165.649410 Y104.885290 Z-0.125000 I0.105510 J0.138674
G01 X165.716453 Y104.888000 Z-0.125000
G02 X165.799090 Y104.348350 Z-0.125000 I-2.198071 J-0.612743
G02 X165.766996 Y103.289843 Z-0.125000 I-8.498278 J-0.272068
G02 X165.694610 Y103.223870 Z-0.125000 I-0.072386 J0.006724
G02 X165.571557 Y103.269814 Z-0.125000 I0.000000 J0.187760
G02 X160.205920 Y107.986370 Z-0.125000 I364.142044 J419.664690
G03 X154.838394 Y112.698073 Z-0.125000 I-334.013910 J-375.092200
G03 X154.702060 Y112.748870 Z-0.125000 I-0.136334 J-0.157556
G03 X154.566768 Y112.689601 Z-0.125000 I-0.000000 J-0.184050
G03 X145.395920 Y102.658820 Z-0.125000 I1145.589483 J-1056.586415
G01 X143.080680 Y100.104210 Z-0.125000
G01 X148.504770 Y95.286490 Z-0.125000
G02 X153.806221 Y90.413662 Z-0.125000 I-140.366486 J-158.033672
G02 X153.928870 Y90.127750 Z-0.125000 I-0.271925 J-0.285912
G02 X153.597372 Y89.729230 Z-0.125000 I-0.405296 J0.000000
G02 X149.430950 Y89.294830 Z-0.125000 I-4.819227 J26.024533
G02 X145.877347 Y89.358756 Z-0.125000 I-1.027677 J41.675536
G02 X144.403870 Y89.599990 Z-0.125000 I0.445764 J7.343432
G01 X144.403900 Y89.600110 Z-0.125000
G00 Z5.000000

(End cutting path id: path507)


(Footer)
M5
G00 X0.0000 Y0.0000
M2
(Using default footer. To add your own footer create file "footer" in the output dir.)
(end)
%